X: 1
T: Dinny Delaney's
R: slide
M: 12/8
L: 1/8
K: Dmix
A2D ~D3 A2G EFG|A2D ~D3 G2A GED|A2D ~D3 c2d e2d|dcA AGE G2A GED:|
|:dcA AGE c3 ABc|dcA AGE G2A GED|dcA AGE c2d e2d|dcA AGE G2A GED:|
|:A2D ~D3 A2B G2B|A2B G2A E2E GED|A2D ~D3 c2d e2d|dcA AGE G2A GED:|
|:dcA AGE c3 ABc|dcA AGE G2A GED|dcA AGE c2d e2d|dcA AGE G2A GED:|


Tune 185	Setting 27582

